!!!OTL: ES GIENG A MOL A BETTELSMANN
!!!ARE: Europa, Mitteleuropa, Deutschland, Kuhlaendchen
!!!SCT: E0139
!!!YEM: Copyright 1995, estate of Helmut Schaffrath.
**kern
*ICvox
*Ivox
*M2/4
*k[f#]
*G:
{8d
=1
8g
8b
8a
8cc
=2
8b
16b
16g
8a}
{8d
=3
8g
8b
8.dd
16b
=4
16dd
16dd
16b
16g
8a}
{8a
=5
8b
8dd
8cc
8b
=6
8dd
16cc
16b
8a}
{8a
=7
8cc
16b
16a
8cc
16b
16a
=8
8b
8d
8g}
==
!!!AGN: erzaehlendes Volks - Lied, Scherz, Schwank, betrogener Ehemann     Ballade ?
!!!ONB: ESAC (Essen Associative Code) Database: ERK1
!!!AMT: simple duple
!!!AIN: vox
!!!EED: Helmut Schaffrath
!!!EEV: 1.0
*-
!!!title: @{OTL} [@{SCT}]
